X: 36403
T: Seán Sa Cheo
R: reel
M: 4/4
K: Emixolydian
|:B2 Ad BEFA|BABF BAFE|FBBA BcdA|FAdB ADFA:|
|:G~E3 GEFA|G~E3 ADFA|G~E3 BcdB|1 cedB AcBA:|2 cedB ABcd||
~e2 ge fege|efge B2 Bc|d2 fd edfd|(3ddd fd BcdB|
~e2 ge fege|efge ~B3c|dcdf edBc|dcdB ADFA||
"pipers ver.":e2 d=g eABd|edeB edBA|Beed ef=gd|Bd=ge dGBd:|
|:c~A3 cABd|c~A3 d=GBd|c~A3 ef=ge|1 fa=ge dfed:|2 fa=ge defg||
~a2 c'a bac'a|abc'a e2 ef|=g2 bg agbg|(3=ggg bg efge|
~a2 c'a bac'a|abc'a ~e3f|=gfgb agef|=gfge dGBd||

